inst/assets/svg/wi-night-alt-cloudy-gusts.svg

<?xml version="1.0" encoding="UTF-8"?>
<svg xmlns="http://www.w3.org/2000/svg" xmlns:xlink="http://www.w3.org/1999/xlink" width="30pt" height="30pt" viewBox="0 0 30 30" version="1.1">
<g id="surface601">
<path style=" stroke:none;fill-rule:nonzero;fill:rgb(0%,0%,0%);fill-opacity:1;" d="M 2.980469 21.019531 C 2.980469 21.25 3.070313 21.449219 3.25 21.621094 C 3.421875 21.789063 3.621094 21.871094 3.859375 21.871094 L 9.601563 21.871094 C 9.859375 21.871094 10.089844 21.96875 10.289063 22.160156 C 10.488281 22.351563 10.589844 22.578125 10.589844 22.839844 C 10.589844 23.109375 10.488281 23.339844 10.289063 23.53125 C 10.089844 23.71875 9.859375 23.820313 9.601563 23.820313 C 9.339844 23.820313 9.121094 23.71875 8.921875 23.519531 C 8.738281 23.359375 8.539063 23.28125 8.308594 23.28125 C 8.070313 23.28125 7.871094 23.359375 7.710938 23.519531 C 7.550781 23.679688 7.46875 23.878906 7.46875 24.121094 C 7.46875 24.339844 7.550781 24.539063 7.710938 24.71875 C 8.230469 25.25 8.871094 25.511719 9.601563 25.511719 C 10.328125 25.511719 10.96875 25.25 11.488281 24.730469 C 12.011719 24.210938 12.269531 23.578125 12.269531 22.839844 C 12.269531 22.101563 12.011719 21.46875 11.488281 20.949219 C 10.96875 20.429688 10.339844 20.160156 9.601563 20.160156 L 3.859375 20.160156 C 3.621094 20.160156 3.421875 20.25 3.238281 20.421875 C 3.070313 20.589844 2.980469 20.789063 2.980469 21.019531 Z M 2.980469 18 C 2.980469 18.21875 3.070313 18.410156 3.25 18.578125 C 3.421875 18.738281 3.628906 18.820313 3.859375 18.820313 L 14.710938 18.820313 C 15.449219 18.820313 16.078125 18.558594 16.601563 18.039063 C 17.121094 17.519531 17.378906 16.890625 17.378906 16.160156 C 17.378906 15.421875 17.121094 14.800781 16.601563 14.28125 C 16.078125 13.761719 15.449219 13.511719 14.710938 13.511719 C 13.949219 13.511719 13.320313 13.761719 12.820313 14.269531 C 12.671875 14.429688 12.589844 14.628906 12.589844 14.878906 C 12.589844 15.128906 12.671875 15.328125 12.820313 15.480469 C 12.96875 15.628906 13.171875 15.710938 13.410156 15.710938 C 13.648438 15.710938 13.851563 15.640625 14.03125 15.480469 C 14.21875 15.289063 14.449219 15.199219 14.710938 15.199219 C 14.96875 15.199219 15.191406 15.289063 15.378906 15.480469 C 15.570313 15.671875 15.671875 15.898438 15.671875 16.160156 C 15.671875 16.421875 15.570313 16.648438 15.378906 16.839844 C 15.191406 17.03125 14.960938 17.128906 14.710938 17.128906 L 3.859375 17.128906 C 3.621094 17.128906 3.421875 17.21875 3.238281 17.390625 C 3.070313 17.570313 2.980469 17.769531 2.980469 18 Z M 5.5 15.648438 C 5.5 15.738281 5.550781 15.78125 5.660156 15.78125 L 7.101563 15.78125 C 7.179688 15.78125 7.25 15.730469 7.320313 15.628906 C 7.539063 15.089844 7.890625 14.640625 8.371094 14.28125 C 8.839844 13.929688 9.371094 13.730469 9.949219 13.679688 L 10.46875 13.609375 C 10.589844 13.609375 10.660156 13.550781 10.660156 13.441406 L 10.738281 12.921875 C 10.851563 11.839844 11.308594 10.929688 12.121094 10.210938 C 12.929688 9.480469 13.890625 9.121094 14.980469 9.121094 C 16.070313 9.121094 17.03125 9.480469 17.828125 10.210938 C 18.640625 10.929688 19.101563 11.839844 19.210938 12.929688 L 19.28125 13.511719 C 19.28125 13.628906 19.339844 13.691406 19.46875 13.691406 L 21.089844 13.691406 C 22 13.691406 22.769531 14.011719 23.410156 14.640625 C 24.050781 15.269531 24.371094 16.03125 24.371094 16.921875 C 24.371094 17.808594 24.050781 18.570313 23.410156 19.210938 C 22.769531 19.851563 22 20.171875 21.101563 20.171875 L 14.191406 20.171875 C 14.078125 20.171875 14.019531 20.230469 14.019531 20.351563 L 14.019531 21.71875 C 14.019531 21.828125 14.078125 21.890625 14.191406 21.890625 L 21.101563 21.890625 C 21.988281 21.890625 22.820313 21.671875 23.578125 21.21875 C 24.339844 20.769531 24.941406 20.171875 25.378906 19.410156 C 25.820313 18.648438 26.050781 17.820313 26.050781 16.929688 C 26.050781 16.050781 25.820313 15.21875 25.371094 14.449219 C 26.101563 13.738281 26.601563 12.878906 26.878906 11.871094 L 27 11.179688 C 27.019531 11.160156 27.03125 11.140625 27.03125 11.109375 C 27.03125 11.070313 26.980469 11.011719 26.890625 10.949219 L 26.289063 10.738281 C 25.449219 10.480469 24.808594 10.03125 24.371094 9.378906 C 23.929688 8.730469 23.710938 8.058594 23.710938 7.359375 C 23.710938 7.121094 23.738281 6.851563 23.800781 6.570313 L 23.929688 5.949219 C 23.949219 5.851563 23.910156 5.769531 23.800781 5.730469 L 23 5.488281 C 22.558594 5.378906 22.148438 5.328125 21.75 5.328125 C 21.378906 5.328125 21.011719 5.371094 20.628906 5.460938 C 20.25 5.550781 19.859375 5.679688 19.449219 5.871094 C 19.050781 6.050781 18.648438 6.320313 18.269531 6.671875 C 17.890625 7.019531 17.550781 7.421875 17.269531 7.890625 C 16.558594 7.589844 15.789063 7.441406 14.949219 7.441406 C 13.539063 7.441406 12.289063 7.878906 11.199219 8.75 C 10.109375 9.621094 9.429688 10.738281 9.128906 12.101563 C 8.269531 12.300781 7.519531 12.710938 6.859375 13.328125 C 6.199219 13.949219 5.75 14.679688 5.5 15.53125 L 5.5 15.558594 C 5.511719 15.578125 5.5 15.609375 5.5 15.648438 Z M 18.730469 8.761719 C 19.039063 8.210938 19.46875 7.789063 20.019531 7.5 C 20.570313 7.210938 21.140625 7.058594 21.730469 7.058594 C 21.871094 7.058594 21.96875 7.058594 22.039063 7.070313 C 22.03125 7.160156 22.019531 7.28125 22.019531 7.429688 C 22.019531 8.371094 22.28125 9.28125 22.808594 10.140625 C 23.328125 11 24.058594 11.648438 24.980469 12.078125 C 24.820313 12.460938 24.570313 12.800781 24.230469 13.109375 C 23.339844 12.351563 22.289063 11.96875 21.070313 11.96875 L 20.738281 11.96875 C 20.480469 10.710938 19.808594 9.640625 18.730469 8.761719 Z M 18.730469 8.761719 "/>
</g>
</svg>

<?xml version="1.0" encoding="utf-8"?>
<!-- Generator: Adobe Illustrator 22.0.1, SVG Export Plug-In . SVG Version: 6.00 Build 0)  -->
<svg version="1.1" id="Layer_1" xmlns="http://www.w3.org/2000/svg" xmlns:xlink="http://www.w3.org/1999/xlink" x="0px" y="0px"
	 viewBox="0 0 30 30" style="enable-background:new 0 0 30 30;" xml:space="preserve">
<path d="M2.98,21.02c0,0.23,0.09,0.43,0.27,0.6c0.17,0.17,0.37,0.25,0.61,0.25H9.6c0.26,0,0.49,0.1,0.69,0.29
	c0.2,0.19,0.3,0.42,0.3,0.68c0,0.27-0.1,0.5-0.3,0.69s-0.43,0.29-0.69,0.29c-0.26,0-0.48-0.1-0.68-0.3
	c-0.18-0.16-0.38-0.24-0.61-0.24c-0.24,0-0.44,0.08-0.6,0.24c-0.16,0.16-0.24,0.36-0.24,0.6c0,0.22,0.08,0.42,0.24,0.6
	c0.52,0.53,1.16,0.79,1.89,0.79s1.37-0.26,1.89-0.78c0.52-0.52,0.78-1.15,0.78-1.89c0-0.74-0.26-1.37-0.78-1.89
	s-1.15-0.79-1.89-0.79H3.86c-0.24,0-0.44,0.09-0.62,0.26C3.07,20.59,2.98,20.79,2.98,21.02z M2.98,18c0,0.22,0.09,0.41,0.27,0.58
	c0.17,0.16,0.38,0.24,0.61,0.24h10.85c0.74,0,1.37-0.26,1.89-0.78c0.52-0.52,0.78-1.15,0.78-1.88c0-0.74-0.26-1.36-0.78-1.88
	c-0.52-0.52-1.15-0.77-1.89-0.77c-0.76,0-1.39,0.25-1.89,0.76c-0.15,0.16-0.23,0.36-0.23,0.61c0,0.25,0.08,0.45,0.23,0.6
	c0.15,0.15,0.35,0.23,0.59,0.23s0.44-0.07,0.62-0.23c0.19-0.19,0.42-0.28,0.68-0.28c0.26,0,0.48,0.09,0.67,0.28
	c0.19,0.19,0.29,0.42,0.29,0.68c0,0.26-0.1,0.49-0.29,0.68c-0.19,0.19-0.42,0.29-0.67,0.29H3.86c-0.24,0-0.44,0.09-0.62,0.26
	C3.07,17.57,2.98,17.77,2.98,18z M5.5,15.65c0,0.09,0.05,0.13,0.16,0.13H7.1c0.08,0,0.15-0.05,0.22-0.15
	c0.22-0.54,0.57-0.99,1.05-1.35c0.47-0.35,1-0.55,1.58-0.6l0.52-0.07c0.12,0,0.19-0.06,0.19-0.17l0.08-0.52
	c0.11-1.08,0.57-1.99,1.38-2.71c0.81-0.73,1.77-1.09,2.86-1.09s2.05,0.36,2.85,1.09c0.81,0.72,1.27,1.63,1.38,2.72l0.07,0.58
	c0,0.12,0.06,0.18,0.19,0.18h1.62c0.91,0,1.68,0.32,2.32,0.95c0.64,0.63,0.96,1.39,0.96,2.28c0,0.89-0.32,1.65-0.96,2.29
	c-0.64,0.64-1.41,0.96-2.31,0.96h-6.91c-0.11,0-0.17,0.06-0.17,0.18v1.37c0,0.11,0.06,0.17,0.17,0.17h6.91
	c0.89,0,1.72-0.22,2.48-0.67s1.36-1.05,1.8-1.81s0.67-1.59,0.67-2.48c0-0.88-0.23-1.71-0.68-2.48c0.73-0.71,1.23-1.57,1.51-2.58
	L27,11.18c0.02-0.02,0.03-0.04,0.03-0.07c0-0.04-0.05-0.1-0.14-0.16l-0.6-0.21c-0.84-0.26-1.48-0.71-1.92-1.36
	c-0.44-0.65-0.66-1.32-0.66-2.02c0-0.24,0.03-0.51,0.09-0.79l0.13-0.62c0.02-0.1-0.02-0.18-0.13-0.22l-0.8-0.24
	c-0.44-0.11-0.85-0.16-1.25-0.16c-0.37,0-0.74,0.04-1.12,0.13c-0.38,0.09-0.77,0.22-1.18,0.41c-0.4,0.18-0.8,0.45-1.18,0.8
	c-0.38,0.35-0.72,0.75-1,1.22c-0.71-0.3-1.48-0.45-2.32-0.45c-1.41,0-2.66,0.44-3.75,1.31s-1.77,1.99-2.07,3.35
	c-0.86,0.2-1.61,0.61-2.27,1.23c-0.66,0.62-1.11,1.35-1.36,2.2v0.03C5.51,15.58,5.5,15.61,5.5,15.65z M18.73,8.76
	c0.31-0.55,0.74-0.97,1.29-1.26c0.55-0.29,1.12-0.44,1.71-0.44c0.14,0,0.24,0,0.31,0.01c-0.01,0.09-0.02,0.21-0.02,0.36
	c0,0.94,0.26,1.85,0.79,2.71c0.52,0.86,1.25,1.51,2.17,1.94c-0.16,0.38-0.41,0.72-0.75,1.03c-0.89-0.76-1.94-1.14-3.16-1.14h-0.33
	C20.48,10.71,19.81,9.64,18.73,8.76z"/>
</svg>
